X: 1
T: Les Vignerons
M: 3/8
L: 1/8
R: bourree
Z: robin.beech@mcgill.ca 
K: G
|: GBA | G3 | BdB | dc/B/A/F/ | GBA | G3 | BdB | dc/B/A/F/ :|
|: Bce | d3 | Bdc | A3 | c2 c | B2 G | B2 A | G3 :|
